symbols/web/radio/materialsymbolssharp/radio_wght200grad200fill1_20px.svg

<svg xmlns="http://www.w3.org/2000/svg" height="20" width="20"><path d="M1.833 18.375v-12.5l11.209-4.604.5 1.229-7.167 2.896h11.792v12.979Zm1.459-8.854h10v-1.75h1.458v1.75h1.958V6.854H3.292Zm3.25 6.146q.729 0 1.239-.511.511-.51.511-1.218 0-.75-.511-1.271-.51-.521-1.239-.521-.73 0-1.25.521-.521.521-.521 1.271 0 .708.521 1.218.52.511 1.25.511Z"/></svg>

<svg xmlns="http://www.w3.org/2000/svg" height="20" width="20"><path d="M1.833 18.375V5.875L13.042 1.271L13.542 2.5L6.375 5.396H18.167V18.375ZM3.292 9.521H13.292V7.771H14.75V9.521H16.708V6.854H3.292ZM6.542 15.667Q7.271 15.667 7.781 15.156Q8.292 14.646 8.292 13.938Q8.292 13.188 7.781 12.667Q7.271 12.146 6.542 12.146Q5.812 12.146 5.292 12.667Q4.771 13.188 4.771 13.938Q4.771 14.646 5.292 15.156Q5.812 15.667 6.542 15.667Z"/></svg>
